X:247
T:Tulla Moondance                                                                                   
M:4/4                                                                                               
L:1/8                                                                                               
K:D                                                                                                 
F E2 D FEDE|F E2 D (3EFA BA|F E2 D FEDA,|B,EED FEBA|                                                
F E2 D FEDE|F E2 D (3EFA BA|F E2 D FEDA,|B,EED FAAd|                                                
B3 e fded|ABeB dBAd|B3 e fded|Bdce dBAc|                                                            
B3 e feed|fefe dcde|fdcd edcA|ABeB dBAG |>|
